ufans-frontend-package/public/assets/images/new-settings/bookmarks.svg

<?xml version="1.0"?>
<svg xmlns="http://www.w3.org/2000/svg" xmlns:xlink="http://www.w3.org/1999/xlink" xmlns:svgjs="http://svgjs.com/svgjs" version="1.1" width="512" height="512" x="0" y="0" viewBox="0 0 512 512" style="enable-background:new 0 0 512 512" xml:space="preserve"><g>
<g xmlns="http://www.w3.org/2000/svg">
	<g>
		<path d="M429.998,431.996c-11.046,0-20,8.954-20,20c0,5.576-1.889,10.268-5.615,13.947c-3.91,3.861-9.583,6.098-15.132,6.054    c-5.475-0.07-9.919-1.935-13.587-5.705L270.333,358.048c-3.765-3.869-8.935-6.052-14.333-6.052s-10.568,2.183-14.333,6.052    L136.335,466.292c-3.641,3.742-8.118,5.608-13.686,5.706c-5.61,0.115-11.257-2.12-15.14-5.936    c-3.655-3.591-5.508-8.206-5.508-13.718V79.999c0-22.056,17.944-40,40-40h227.997c22.056,0,40,17.944,40,40v272.997    c0,11.046,8.954,20,20,20c11.046,0,20-8.954,20-20V79.999C449.997,35.888,414.11,0,369.998,0H142.001    C97.889,0,62.002,35.888,62.002,79.999v372.345c0,16.174,6.206,31.179,17.474,42.25C90.77,505.69,106.32,512,122.288,512    c0.355,0,0.711-0.003,1.066-0.009c16.191-0.285,30.592-6.441,41.648-17.804L256,400.673l90.998,93.514    c11.136,11.444,25.572,17.601,41.747,17.806c16.236,0.167,32.215-6.204,43.742-17.588c11.292-11.149,17.51-26.211,17.51-42.409    C449.998,440.95,441.044,431.996,429.998,431.996z" fill="#6661e7" data-original="#000000"/>
	</g>
</g>
<g xmlns="http://www.w3.org/2000/svg">
</g>
<g xmlns="http://www.w3.org/2000/svg">
</g>
<g xmlns="http://www.w3.org/2000/svg">
</g>
<g xmlns="http://www.w3.org/2000/svg">
</g>
<g xmlns="http://www.w3.org/2000/svg">
</g>
<g xmlns="http://www.w3.org/2000/svg">
</g>
<g xmlns="http://www.w3.org/2000/svg">
</g>
<g xmlns="http://www.w3.org/2000/svg">
</g>
<g xmlns="http://www.w3.org/2000/svg">
</g>
<g xmlns="http://www.w3.org/2000/svg">
</g>
<g xmlns="http://www.w3.org/2000/svg">
</g>
<g xmlns="http://www.w3.org/2000/svg">
</g>
<g xmlns="http://www.w3.org/2000/svg">
</g>
<g xmlns="http://www.w3.org/2000/svg">
</g>
<g xmlns="http://www.w3.org/2000/svg">
</g>
</g></svg>

<svg xmlns="http://www.w3.org/2000/svg" width="388.003" height="512" viewBox="0 0 388.003 512">
  <g id="bookmarks" transform="translate(-61.998)">
    <g id="Group_2" data-name="Group 2">
      <g id="Group_1" data-name="Group 1">
        <path id="Path_1" data-name="Path 1" d="M430,432a20,20,0,0,0-20,20,18.867,18.867,0,0,1-5.615,13.947A21.7,21.7,0,0,1,389.251,472a18.376,18.376,0,0,1-13.587-5.7L270.333,358.048a20,20,0,0,0-28.666,0L136.335,466.292A18.617,18.617,0,0,1,122.649,472a21.351,21.351,0,0,1-15.14-5.936A18.5,18.5,0,0,1,102,452.344V80a40.045,40.045,0,0,1,40-40H370a40.045,40.045,0,0,1,40,40V353a20,20,0,0,0,40,0V80A80.091,80.091,0,0,0,370,0H142A80.09,80.09,0,0,0,62,80V452.344a58.678,58.678,0,0,0,17.474,42.25A61.392,61.392,0,0,0,122.288,512c.355,0,.711,0,1.066-.009A58.318,58.318,0,0,0,165,494.187l91-93.514,91,93.514a58.064,58.064,0,0,0,41.747,17.806,61.735,61.735,0,0,0,43.74-17.593A59.07,59.07,0,0,0,450,452,20,20,0,0,0,430,432Z" fill="#e44499"/>
      </g>
    </g>
  </g>
</svg>
